Catalina-light/actions/16/distribute-horizontal-right.svg

<svg width="16" height="16" viewBox="0 0 16 16" xmlns="http://www.w3.org/2000/svg">
<defs>
<style id="current-color-scheme" type="text/css">.ColorScheme-Text { color:#5c616c; } .ColorScheme-Highlight { color:#5294e2; }</style>
</defs>
<path class="ColorScheme-Text" d="m5 1v2h-5v4h5v2h-5v4h5v2h2v-14h-2zm9 0v2h-5v4h5v2h-5v4h5v2h2v-14h-2z" fill="currentColor"/>
</svg>

<svg xmlns="http://www.w3.org/2000/svg" width="16" height="16" viewBox="0 0 16 16">
 <defs>
  <style id="current-color-scheme" type="text/css">
   .ColorScheme-Text { color:#5c616c; } .ColorScheme-Highlight { color:#5294e2; }
  </style>
 </defs>
 <path style="fill:currentColor" class="ColorScheme-Text" d="M 5 1 L 5 3 L 0 3 L 0 7 L 5 7 L 5 9 L 0 9 L 0 13 L 5 13 L 5 15 L 7 15 L 7 1 L 5 1 z M 14 1 L 14 3 L 9 3 L 9 7 L 14 7 L 14 9 L 9 9 L 9 13 L 14 13 L 14 15 L 16 15 L 16 1 L 14 1 z"/>
</svg>
